X: 061
T: Sean Maguire
C: Bert Murray
R: reel
B: Bert Murray's "Bon Accord Collection" 1999 p.6
%
Z: 2011 John Chambers <jc:trillian.mit.edu>
M: 4/4
L: 1/8
K: A
|: ue2 |\
A>e .e/.e/.e (fe)^de | aecA EAcA | B>f .f/.f/.f (gf)^ef | bfdB FBdB |
c>e .e/.e/.e (fe)^de | aecA EAce | (f/g/f) (e/f/e) (d/e/d) (c/d/c) | (B/c/B) AG A2 :|
|: u(e/f/e) |\
"1"ac' .c'/.c'/.c' (ac')ea | ceAc EAce | fB .B/.B/.B (Bc)de | fBba agfe |
   ac' .c'/.c'/.c' (ac')ea | ceAc EAce | (f/g/f) (e/f/e) (d/e/d) (c/d/c) | BAGB A2 :|

%%sep 2 1 500

